X:1
T: Amelia
T: Amelia's Waltz
C: Bob McQuillen (Copyright 1981, Bob McQuillen)
R: waltz
M: 3/4
L: 1/4
K: D
A, \
|: "D"D>ED | DF>E | "D"DF "G"B | "D"A2A |
   "G"B>GB | "D"AFE | "Bm"DB,>B, | "G"B,2 "A7"A, |
   "D"D>ED | DF>E | "D"DF "G"B | "D"A2A |
   "G"B>cd | "Em"def | "A7"e>cB |[1 "A"A2A, :|[2 "A"A2a ||
|: "D"fa>f | "D"afd | "A"e>cA | A2f/e/ |
   "Bm"d>Bd | fdB | "F#m"c>AF | F2A |
   "G"GB>G | "D"FAd | "A7"e>cA | "D"d2f |
   "G"g>fe | "D"af "Bm"d | "G"d e>"A7"c |[1 "D"d2a :|[2 "D"d2 A, |]
N:The Waltz Book, pg 11 - abc by Peter Ostapenko.
N:Last update - PO 8/27/2007.
N:D Major
